icons/svg/icons8/doctor.svg

<svg width="26" height="26" viewBox="0 0 26 26" fill="none" xmlns="http://www.w3.org/2000/svg">
<path d="M5.932 12.954C5.868 13.343 5.824 13.748 5.8 14.17C4.783 14.17 4 15.262 4 16.726C4 18.191 5.896 19.567 6.7 19.567C7.503 23.362 11.658 24.97 13 24.97C14.342 24.97 18.496 23.366 19.3 19.571C20.321 19.571 22 18.137 22 16.726C22 15.317 21.165 14.17 20.2 14.17C20.172 13.672 20.117 13.196 20.033 12.744" stroke="#333333" stroke-width="1.8" stroke-miterlimit="10" stroke-linecap="round" stroke-linejoin="round"/>
<path d="M16.5001 17.963C17.3081 17.963 17.9631 17.308 17.9631 16.5C17.9631 15.692 17.3081 15.037 16.5001 15.037C15.6921 15.037 15.0371 15.692 15.0371 16.5C15.0371 17.308 15.6921 17.963 16.5001 17.963Z" fill="#333333"/>
<path d="M9.50009 17.962C10.3075 17.962 10.9621 17.3074 10.9621 16.5C10.9621 15.6926 10.3075 15.038 9.50009 15.038C8.69265 15.038 8.03809 15.6926 8.03809 16.5C8.03809 17.3074 8.69265 17.962 9.50009 17.962Z" fill="#333333"/>
<path d="M9.5122 12.875C6.2222 12.611 5.1792 12.021 5.1792 12.021L6.0002 5.827C6.0002 5.827 6.5492 3 13.0002 3C19.4512 3 20.0002 5.827 20.0002 5.827L20.8212 12.02C20.8212 12.02 19.6822 12.615 16.3312 12.877" stroke="#333333" stroke-width="2" stroke-miterlimit="10" stroke-linecap="round" stroke-linejoin="round"/>
<path d="M13 14C15.2091 14 17 12.2091 17 10C17 7.79086 15.2091 6 13 6C10.7909 6 9 7.79086 9 10C9 12.2091 10.7909 14 13 14Z" stroke="#333333" stroke-width="2" stroke-miterlimit="10" stroke-linecap="round" stroke-linejoin="round"/>
<path d="M13 10.979C13.5407 10.979 13.979 10.5407 13.979 10C13.979 9.45931 13.5407 9.021 13 9.021C12.4593 9.021 12.021 9.45931 12.021 10C12.021 10.5407 12.4593 10.979 13 10.979Z" fill="#333333"/>
<path d="M19 13.25L19.395 15.965C19.395 15.965 20.815 14.312 22.171 14.99C22.45 13.952 22.33 12.554 21.567 11.923C20.723 11.501 19 13.25 19 13.25Z" fill="#333333"/>
<path d="M6.99989 13.25L6.60489 15.965C6.60489 15.965 5.18589 14.312 3.82889 14.99C3.54989 13.952 3.66889 12.554 4.43289 11.923C5.27789 11.501 6.99989 13.25 6.99989 13.25Z" fill="#333333"/>
</svg>

<?xml version="1.0" encoding="utf-8"?>
<!-- Generator: Adobe Illustrator 15.0.0, SVG Export Plug-In . SVG Version: 6.00 Build 0)  -->
<!DOCTYPE svg PUBLIC "-//W3C//DTD SVG 1.1//EN" "http://www.w3.org/Graphics/SVG/1.1/DTD/svg11.dtd">
<svg version="1.1" id="Layer_1" xmlns="http://www.w3.org/2000/svg" xmlns:xlink="http://www.w3.org/1999/xlink" x="0px" y="0px"
	 width="26px" height="26px" viewBox="0 0 26 26" enable-background="new 0 0 26 26" xml:space="preserve">
<rect fill="none" width="26" height="26"/>
<path fill="none" stroke="#333333" stroke-width="1.8" stroke-linecap="round" stroke-linejoin="round" stroke-miterlimit="10" d="
	M5.932,12.954C5.868,13.343,5.824,13.748,5.8,14.17c-1.017,0-1.8,1.092-1.8,2.556c0,1.465,1.896,2.841,2.7,2.841
	c0.803,3.795,4.958,5.403,6.3,5.403c1.342,0,5.496-1.604,6.3-5.399c1.021,0,2.7-1.434,2.7-2.845c0-1.409-0.835-2.556-1.8-2.556
	c-0.028-0.498-0.083-0.974-0.167-1.426"/>
<circle fill="#333333" cx="16.5" cy="16.5" r="1.463"/>
<circle fill="#333333" cx="9.5" cy="16.5" r="1.462"/>
<path fill="none" stroke="#333333" stroke-width="2" stroke-linecap="round" stroke-linejoin="round" stroke-miterlimit="10" d="
	M9.512,12.875c-3.29-0.264-4.333-0.854-4.333-0.854L6,5.827C6,5.827,6.549,3,13,3s7,2.827,7,2.827l0.821,6.193
	c0,0-1.139,0.595-4.49,0.857"/>
<circle fill="none" stroke="#333333" stroke-width="2" stroke-linecap="round" stroke-linejoin="round" stroke-miterlimit="10" cx="13" cy="10" r="4"/>
<circle fill="#333333" cx="13" cy="10" r="0.979"/>
<path fill="#333333" d="M19,13.25l0.395,2.715c0,0,1.42-1.653,2.776-0.975c0.279-1.038,0.159-2.436-0.604-3.067
	C20.723,11.501,19,13.25,19,13.25z"/>
<path fill="#333333" d="M7,13.25l-0.395,2.715c0,0-1.419-1.653-2.776-0.975c-0.279-1.038-0.16-2.436,0.604-3.067
	C5.278,11.501,7,13.25,7,13.25z"/>
</svg>
